build/assets/images/bg-s-full.svg

<svg width="800" height="1150" fill="none" xmlns="http://www.w3.org/2000/svg"><path d="M420.1 18C216.697 18 78.865 118.282 78.865 278.733c0 332.937 505.831 216.61 505.831 425.197 0 72.203-65.571 113.653-175.301 113.653-100.363 0-220.799-48.136-317.148-136.384L24 817.583C120.349 905.831 259.519 966 406.719 966c206.079 0 353.278-102.956 353.278-270.093 1.339-336.948-504.492-227.306-504.492-431.882 0-62.843 60.218-97.608 152.552-97.608 70.923 0 172.625 25.405 274.326 86.912l65.571-139.058C660.972 56.776 541.874 18 420.1 18z" fill="#132631" fill-opacity=".05"/></svg>

<svg width="800" height="1150" viewBox="0 0 800 1150" fill="none" xmlns="http://www.w3.org/2000/svg">
<path d="M420.1 18C216.697 18 78.865 118.282 78.865 278.733C78.865 611.67 584.696 495.343 584.696 703.93C584.696 776.133 519.125 817.583 409.395 817.583C309.032 817.583 188.596 769.447 92.247 681.199L24 817.583C120.349 905.831 259.519 966 406.719 966C612.798 966 759.997 863.044 759.997 695.907C761.336 358.959 255.505 468.601 255.505 264.025C255.505 201.182 315.723 166.417 408.057 166.417C478.98 166.417 580.682 191.822 682.383 253.329L747.954 114.271C660.972 56.7757 541.874 18 420.1 18Z" fill="#132631" fill-opacity="0.05"/>
</svg>
